X:2
T: ES FREIT EIN WILDER WASSERMANN
N: E0001A
O: Europa, Mitteleuropa, Deutschland, Schlesien, Goldberg, Neukirch
R: Sage, Maerchen -, Zauber - Lied
M: 2/4
L: 1/16
K: F
C2 | F2F2F2A2 | c2A2F4 |
A2c2c2c2 | f2c2A2
A2 | c4dcBA | G4z2
G2 | F2A2c2A2 | G2A2B2
GG | F2A2cBG2 | F4z2

@@@ Tune index: 3652
